packages/ffe-icons/icons/filled/lg/keyboard_command_key.svg

<svg xmlns="http://www.w3.org/2000/svg" height="40" viewBox="0 -960 960 960" width="40"><path d="M255.061-130.001q-51.933 0-88.496-36.631-36.564-36.631-36.564-88.564 0-51.932 36.611-88.496 36.612-36.564 88.516-36.564h74.873v-199.488h-74.873q-51.904 0-88.516-36.632-36.611-36.631-36.611-88.563 0-51.933 36.631-88.496 36.631-36.564 88.564-36.564 51.932 0 88.496 36.611 36.564 36.612 36.564 88.516v74.873h199.488v-74.873q0-51.904 36.632-88.516 36.631-36.611 88.563-36.611 51.933 0 88.496 36.631 36.564 36.631 36.564 88.564 0 51.932-36.611 88.496-36.612 36.564-88.516 36.564h-74.873v199.488h74.873q51.904 0 88.516 36.632 36.611 36.631 36.611 88.563 0 51.933-36.631 88.496-36.631 36.564-88.564 36.564-51.932 0-88.496-36.611-36.564-36.612-36.564-88.516v-74.873H380.256v74.873q0 51.904-36.632 88.516-36.631 36.611-88.563 36.611Zm-.011-50.255q31.079 0 53.015-21.88 21.936-21.881 21.936-52.992v-74.873h-74.873q-31.111 0-52.992 21.858-21.88 21.858-21.88 52.936 0 31.079 21.857 53.015 21.858 21.936 52.937 21.936Zm449.743 0q31.079 0 53.015-21.857 21.936-21.858 21.936-52.937 0-31.079-21.88-53.015-21.881-21.936-52.992-21.936h-74.873v74.873q0 31.111 21.858 52.992 21.858 21.88 52.936 21.88Zm-324.537-200h199.488v-199.488H380.256v199.488ZM255.128-629.999h74.873v-74.873q0-31.111-21.858-52.992-21.858-21.88-52.936-21.88-31.079 0-53.015 21.857-21.936 21.858-21.936 52.937 0 31.078 21.88 53.015 21.881 21.936 52.992 21.936Zm374.871 0h74.873q31.111 0 52.992-21.858 21.88-21.858 21.88-52.936 0-31.079-21.857-53.015-21.858-21.936-52.937-21.936-31.078 0-53.015 21.88-21.936 21.881-21.936 52.992v74.873Z"/></svg>

<svg xmlns="http://www.w3.org/2000/svg" viewBox="0 -960 960 960" width="32" height="32"><path d="M255.06-130q-51.93 0-88.5-36.63Q130-203.26 130-255.2q0-51.93 36.61-88.49 36.61-36.57 88.52-36.57H330v-199.48h-74.87q-51.91 0-88.52-36.64Q130-653.01 130-704.94t36.63-88.5Q203.26-830 255.2-830q51.93 0 88.49 36.61 36.57 36.61 36.57 88.52V-630h199.48v-74.87q0-51.91 36.64-88.52Q653.01-830 704.94-830t88.5 36.63Q830-756.74 830-704.8q0 51.93-36.61 88.49-36.61 36.57-88.52 36.57H630v199.48h74.87q51.91 0 88.52 36.64Q830-306.99 830-255.06t-36.63 88.5Q756.74-130 704.8-130q-51.93 0-88.49-36.61-36.57-36.61-36.57-88.52V-330H380.26v74.87q0 51.91-36.64 88.52Q306.99-130 255.06-130Zm-.01-50.26q31.08 0 53.01-21.88Q330-224.02 330-255.13V-330h-74.87q-31.11 0-52.99 21.86-21.88 21.85-21.88 52.93t21.85 53.02q21.86 21.93 52.94 21.93Zm449.74 0q31.08 0 53.02-21.85 21.93-21.86 21.93-52.94t-21.88-53.01Q735.98-330 704.87-330H630v74.87q0 31.11 21.86 52.99 21.85 21.88 52.93 21.88Zm-324.53-200h199.48v-199.48H380.26v199.48ZM255.13-630H330v-74.87q0-31.11-21.86-52.99-21.85-21.88-52.93-21.88t-53.02 21.85q-21.93 21.86-21.93 52.94t21.88 53.01Q224.02-630 255.13-630ZM630-630h74.87q31.11 0 52.99-21.86 21.88-21.85 21.88-52.93t-21.85-53.02q-21.86-21.93-52.94-21.93t-53.01 21.88Q630-735.98 630-704.87V-630Z"/></svg>
